X:1
T:Moreno, 11.8.11.8 D
T:Moreno, 11.8.11.8 D
T:Alfred Theodore Schauffler, 1898
T:Public Domain Courtesy of the Cyber Hymnal™
C:Alfred Theodore Schauffler, 1898
Z:Public Domain
Z:Courtesy of the Cyber Hymnal™
%%score ( 1 2 ) ( 3 4 )
L:1/8
Q:1/4=130
M:3/4
K:C
V:1 treble 
V:2 treble 
V:3 bass 
V:4 bass 
V:1
 ([EG][EG]) | [FG]2 [FA]2 [FB]2 | [Ec]2 [CE]2 [CA]2 | [CG]2 C2 [B,F]2 | [CE]4 [CE]2 | %5
 [B,D]2 [CE]2 [DF]2 | [FA]2 [EG]2 [^D^F]2 | ([E-G]6 x6 | [CE]4) (GG) | [GA]2 [GB]2 [Gc]2 | %10
 [Ad]2 A2 [Dc]2 | [DB]2 [CE]2 [CA]2 | [B,G]4 [^CG]2 | [D^F]2 [^CG]2 [=CA]2 | [B,B]2 [Ec]2 [C^F]2 | %15
 A6 | [B,G]4 [DG]2 | [DG]2 [DA]2 [DB]2 | [Cc]2 [DB]2 [Cc]2 | [CA]2 [DB]2 [G^c]2 | [Fd]4 [F^d]2 | %21
 [Ee]2 [EB]2 [Ed]2 | [Ec]2 [CE]2 [EB]2 | ([^FA]6 | G4) ([DG][DG]) | [DG]2 [DA]2 [DB]2 | %26
 [Cc]2 [CE]2 [CA]2 | [CG]2 C2 [B,F]2 | [CE]4 ([DG][DG]) | [Gc]2 [Gd]2 [Ge]2 | [Ff]2 [FA]2 [Fe]2 | %31
 d6 | [Ec]4 |] %33
V:2
 x2 | x6 | x6 | x2 C2 x2 | x6 | x6 | x6 | x12 | x4 GG | x6 | x2 A2 x2 | x6 | x6 | x6 | x6 | %15
 (C2 D2 C2) | x6 | x6 | x6 | x6 | x6 | x6 | x6 | x6 | G4 x2 | x6 | x6 | x2 C2 x2 | x6 | x6 | x6 | %31
 F2 G2 F2 | x4 |] %33
V:3
 ([C,C][C,C]) | [C,B,]2 [C,A,]2 [C,G,]2 | [C,G,]2 [C,G,]2 F,2 | [E,G,]2 [E,G,]2 [D,G,]2 | %4
 [C,G,]4 [C,G,]2 | [G,,G,]2 [G,,G,]2 [G,,G,]2 | [C,G,]2 [C,G,]2 [C,A,]2 | %7
 ([C,-C]6 [C,G,]4) ([CE][CE]) | [CE]2 [B,E]2 [A,E]2 | [^F,D]2 [F,D]2 [F,A,]2 | %10
 G,2 [C,G,]2 [D,^F,]2 | [E,G,]4 [E,G,]2 | [D,A,]2 [E,A,]2 [^F,A,]2 | G,2 [C,G,]2 D,2 | ([D,^F,]6 | %15
 [G,,G,]4) [G,B,]2 | [F,B,]2 [F,A,]2 [F,G,]2 | [E,G,]2 [F,G,]2 [E,G,]2 | [F,A,]2 [F,A,]2 [E,A,]2 | %19
 [D,A,]4 [C,A,]2 | [B,,^G,]2 [B,,G,]2 [^G,,B,]2 | [A,,A,]2 [A,,A,]2 [A,,C]2 | ([D,C]6 | %23
 [G,B,]4) ([G,B,][G,B,]) | [F,B,]2 [F,A,]2 [F,G,]2 | [E,G,]2 [C,G,]2 [F,,F,]2 | %26
 [G,,E,]2 [G,,E,]2 [G,,G,]2 | [C,G,]4 ([F,B,][F,B,]) | [E,C]2 [D,B,]2 [^C,A,]2 | %29
 [D,A,]2 [D,A,]2 [D,A,]2 | ([G,,B,]6 | [C,C]4) x2 | x4 |] %33
V:4
 x2 | x6 | x4 F,2 | x6 | x6 | x6 | x6 | x12 | x6 | x6 | G,2 x4 | x6 | x6 | G,2 D,2 x2 | x6 | x6 | %16
 x6 | x6 | x6 | x6 | x6 | x6 | x6 | x6 | x6 | x6 | x6 | x6 | x6 | x6 | x6 | x6 | x4 |] %33

